svgs/duotone/manhole.svg

<svg xmlns="http://www.w3.org/2000/svg" viewBox="0 0 512 512"><!-- Font Awesome Pro 6.0.0-alpha2 by @fontawesome - https://fontawesome.com License - https://fontawesome.com/license (Commercial License) --><defs><style>.fa-secondary{opacity:.4}</style></defs><path d="M287.359 99.17C285.693 115.277 272.549 128 256 128S226.307 115.277 224.641 99.17C151.391 113.797 96 178.514 96 256S151.391 398.203 224.641 412.83C226.307 396.721 239.451 384 256 384S285.693 396.721 287.359 412.83C360.609 398.203 416 333.486 416 256S360.609 113.797 287.359 99.17ZM208 336H176V304H208V336ZM208 272H176V240H208V272ZM208 208H176V176H208V208ZM272 336H240V304H272V336ZM272 272H240V240H272V272ZM272 208H240V176H272V208ZM336 336H304V304H336V336ZM336 272H304V240H336V272ZM336 208H304V176H336V208Z" class="fa-secondary"/><path d="M256 16C123.451 16 16 123.451 16 256S123.451 496 256 496S496 388.549 496 256S388.549 16 256 16ZM256 448C149.961 448 64 362.039 64 256S149.961 64 256 64S448 149.961 448 256S362.039 448 256 448Z" class="fa-primary"/></svg>

<svg xmlns="http://www.w3.org/2000/svg" viewBox="0 0 512 512"><!--! Font Awesome Pro 6.0.0-alpha3 by @fontawesome - https://fontawesome.com License - https://fontawesome.com/license (Commercial License) --><defs><style>.fa-secondary{opacity:.4}</style></defs><path class="fa-primary" d="M256 0C114.6 0 0 114.6 0 256c0 141.4 114.6 256 256 256s256-114.6 256-256C512 114.6 397.4 0 256 0zM256 448c-106 0-192-85.96-192-192s85.96-192 192-192s192 85.96 192 192S362 448 256 448z"/><path class="fa-secondary" d="M287.4 99.17C285.7 115.3 272.5 128 256 128S226.3 115.3 224.6 99.17C151.4 113.8 96 178.5 96 256s55.39 142.2 128.6 156.8C226.3 396.7 239.5 384 256 384s29.69 12.72 31.36 28.83C360.6 398.2 416 333.5 416 256S360.6 113.8 287.4 99.17zM208 336h-32v-32h32V336zM208 272h-32v-32h32V272zM208 208h-32v-32h32V208zM272 336h-32v-32h32V336zM272 272h-32v-32h32V272zM272 208h-32v-32h32V208zM336 336h-32v-32h32V336zM336 272h-32v-32h32V272zM336 208h-32v-32h32V208z"/></svg>
